F[ERK2
CUT[HERZIGS SCHATZERL]
REG[Europa, Mitteleuropa, Oesterreich, Tirol]
KEY[E0637  16  C 3/4]
MEL[-3_.-4  -5__3_.21_.-6  -5__-3_0_
    -6_.-5  -5_--7_-2_-4_-6_.-5  -5__-3_0_
    -3_.-4  -5__3__1_.-6  -5__-3_
    -5_-6_.-5  -5_.44__-7_-7_  1__0_
    -5_-6_.-5  -4_--7_-2_-4_-6_.-5  -5_-1_-3_
    -5_-6_.-5  -4_--7_-2_-4_-6_.-5#  -5_-1_-3__
    -3_.-4  -5__3_.21_.-6  -5__-3_
    -5_-6_.-5  -5_.44__-7_-7_  1__0__ //] >>
FCT[Liebes - Lied]
